X: 38991
T: Swallow's Tail, The
R: reel
M: 4/4
K: Adorian
e3d eA~A2|eAfA g3a|gedB dG~G2|BGBd g2fg|
egfg eA~A2|eAfA g3a|bagb aged|e/f/g dB A2Bd:|
eaag aged|B/c/d ef g3a|gedB dG~G2|BGBd g2fg|
eaag aged|B/c/d ef g3a|bagb aged|e/f/g dB A2Bd:|

